svg/fluentui-system-icons/ic_fluent_document_arrow_left_24_regular.svg

<svg width="24" height="24" viewBox="0 0 24 24" fill="none" xmlns="http://www.w3.org/2000/svg">
<path d="M18.5 20C18.5 20.275 18.276 20.5 18 20.5H12.2678C11.9806 21.051 11.6168 21.5557 11.1904 22H18C19.104 22 20 21.104 20 20V9.828C20 9.298 19.789 8.789 19.414 8.414L13.585 2.586C13.57 2.57105 13.5531 2.55808 13.5363 2.5452C13.5238 2.53567 13.5115 2.5262 13.5 2.516C13.429 2.452 13.359 2.389 13.281 2.336C13.2557 2.31894 13.2281 2.30548 13.2005 2.29207C13.1845 2.28426 13.1685 2.27647 13.153 2.268C13.1363 2.25859 13.1197 2.24897 13.103 2.23933C13.0488 2.20797 12.9944 2.17648 12.937 2.152C12.74 2.07 12.528 2.029 12.313 2.014C12.2933 2.01274 12.2738 2.01008 12.2542 2.00741C12.2271 2.00371 12.1999 2 12.172 2H6C4.896 2 4 2.896 4 4V11.4982C4.47417 11.3004 4.97679 11.1572 5.5 11.0764V4C5.5 3.725 5.724 3.5 6 3.5H12V8C12 9.104 12.896 10 14 10H18.5V20ZM13.5 4.621L17.378 8.5H14C13.724 8.5 13.5 8.275 13.5 8V4.621ZM12 17.5C12 20.5376 9.53757 23 6.5 23C3.46243 23 1 20.5376 1 17.5C1 14.4624 3.46243 12 6.5 12C9.53757 12 12 14.4624 12 17.5ZM9.5 18C9.77614 18 10 17.7761 10 17.5C10 17.2239 9.77614 17 9.5 17H4.70711L6.35355 15.3536C6.54882 15.1583 6.54882 14.8417 6.35355 14.6464C6.15829 14.4512 5.84171 14.4512 5.64645 14.6464L3.14645 17.1464C2.95118 17.3417 2.95118 17.6583 3.14645 17.8536L5.64645 20.3536C5.84171 20.5488 6.15829 20.5488 6.35355 20.3536C6.54882 20.1583 6.54882 19.8417 6.35355 19.6464L4.70711 18H9.5Z" fill="#212121"/>
</svg>

<svg xmlns="http://www.w3.org/2000/svg" width="24" height="24"><path d="M18.5 20a.5.5 0 0 1-.5.5h-5.732A6.518 6.518 0 0 1 11.19 22H18a2 2 0 0 0 2-2V9.828a2 2 0 0 0-.586-1.414l-5.829-5.828a.491.491 0 0 0-.049-.04.63.63 0 0 1-.036-.03 2.072 2.072 0 0 0-.219-.18.652.652 0 0 0-.08-.044l-.048-.024-.05-.029c-.054-.031-.109-.063-.166-.087a1.977 1.977 0 0 0-.624-.138.56.56 0 0 1-.059-.007.605.605 0 0 0-.082-.007H6a2 2 0 0 0-2 2v7.498a6.451 6.451 0 0 1 1.5-.422V4a.5.5 0 0 1 .5-.5h6V8a2 2 0 0 0 2 2h4.5v10Zm-5-15.379L17.378 8.5H14a.5.5 0 0 1-.5-.5V4.621ZM12 17.5a5.5 5.5 0 1 1-11 0 5.5 5.5 0 0 1 11 0Zm-2.5.5a.5.5 0 0 0 0-1H4.707l1.647-1.646a.5.5 0 0 0-.708-.708l-2.5 2.5a.5.5 0 0 0 0 .708l2.5 2.5a.5.5 0 0 0 .708-.708L4.707 18H9.5Z"/></svg>
